!!!OTL: Waldlust.
!!!OTL-incipit: WIE HERRLICH ISTS IM WALD
!!!COM: Wuerfel.
!!!ARE: Europa, Mitteleuropa, Deutschland
!!!SCT: F0974
!!!TXL: @@DE
!!!YEM: Copyright 1995, estate of Helmut Schaffrath.
**kern	**text
*ICvox	*
*M6/8	*
*k[f#c#g#]	*
*A:	*
!LO:TX:a:t= Kräftig und munter.	!
{8a	1._Wie
=1	=1
4a	herrlich
8e	.
4e	iſt's
8a	im
=2	=2
[4.cc#/	Wald,
8cc#/]	.
8r}	.
{8cc#/	im
=3	=3
4b/	grünen,
8b/	.
4b/	grünen
8ee/	.
=4	=4
[4.cc#/	Wald!
8cc#/]	.
8r}	.
{8a	Wie
=5	=5
4a	herrlich
8e	.
4e	iſt's
8a	im
=6	=6
[4.cc#/	Wald,
8cc#/]	.
8r}	.
{8cc#/	im
=7	=7
4b/	grünen,
8b/	.
4b/	grünen
8ee/	.
=8	=8
[4.cc#/	Wald!
8cc#/]	.
8r}	.
=||:	=||:
{8cc#/	Wenn
=9	=9
8.cc#/	fröh-
16cc#/	-li-
8cc#/	-che
8cc#/	Hörner
8dd	.
8ee	er-
=10	=10
4.ff#	-kin-
8ee	-gen,
8r}	.
{8ee	wie
=11	=11
8.cc#/	regt
16cc#/	ſich
8cc#/	die
8cc#/	Luſt
8dd	hier
8ee	ʒu
=12	=12
4.ff#	ſin-
8ee	-gen,
8r}	.
{8cc#/	ʒu
=13	=13
8.b/	ſin-
16b/	-gen
8b/	im
4b/	grü-
8ee/	-nen
=14	=14
[4.cc#/	Wald,
8cc#/]	.
8r}	.
{8cc#/	im
=15	=15
4b/	1-
8b/	-3._grü-
4b/	-nen,
8ee/	grü-
=16	=16
[4.cc#/	-nen
8cc#/]	Wald.
8r}	.
==:||	==:||
!!!AGN: Natur - Lied, Wald
!!!ONB: ESAC (Essen Associative Code) Database: FINK
!!!AMT: compound duple
!!!AIN: vox
!!!EED: Helmut Schaffrath
!!!EEV: 1.0
!!!GTL: Lieder um Preise der Natur.
!!!source: Musikalischer Hausschatz der Deutschen. Eine Sammlung von über 1000 Liedern und Gesängen mit Singstimmen und Klavierbegleitung. Leipzig, Litterarisches Verlags-Haus.
!!!page: 734
!!!ENC: Anna Maria Matuszewska
!!!EEV: 2025/03/20
*-	*-
